T: Glenbeigh, The
M: 4/4
L: 1/8
K: Gmaj
G>AB>c d>g (3fga | g2 B2 d2 d>B | c>BA>B c2 c>A | B>AG>A B>cB>A |G>A (3Bcd d>g (3fga | g2 B2 d2 d>B | c>BA>B c>AF>G |[1 A>GG>F G2 :|[2 A2 G2 G>A ||d2 b2 c2 a2 | B>gg>f g>dB>G | F>GA>B c>AF>A | G/A/G/F/ G>A B>AB>c |d2 b>B c2 a>A | B>gg>f g>dB>G | F>GA>B c>AF>G |[1 (3ABA G2 GA :|2 (3AAA G2 G2 |]GABc dgfa | g2 B2 d2 dB | cBAB c2 cA | BAGA BcBA |G2 Bc d2 fa | g2 B2 d2 dB | cBAB cAFG |[1 AGGF G2 :|[2 A2 G2 GA ||d2 b2 c2 a2 | Bggf gdBG | FGAB cAFA | GFGA BABc |d2 bB c2 aA | Bggf gdBG | FGAB cAFG |[1 A2 G2 GA :|[2 A2 G2 G2 |]
